X:1
T:Title
%%score ( 1 2 ) { 3 | 4 }
L:1/8
Q:1/4=115
M:3/4
K:Eb
V:1 treble nm="Grand Piano, Unnamed-000"
V:2 treble 
V:3 bass nm="Choir Pad, In Tenebris Lumen"
V:4 bass 
V:1
 [EB]2 [GB]2 [FB]2 | [Ee]4 [Ec]2 | [EB]4 [DF]2 | [B,G]6 | [=B,G]2 [CG]2 [DG]2 | [Ee]2 [Fd]2 [Gc]2 | %6
w: By~John~Bacchus~Dykes,~1875 * *||||||
 [FB]4 [FA]2 | [FG]4 [FG]2 | [=EG]2 [Fc]2 [Gc]2 | G2 z2 z2 | [DF]2 [EB]2 [FB]2 | B2- [EB]4 | %12
w: ||||||
 [EB]2 [Ec]2 [Dd]2 | [Ec]4 [E=A]2 | [DG]4 [D_G]2 | [DG]4 [DB]2 | [DB]2 [Ec]2 [Fd]2 | [Ee]4 E2 | %18
w: ||||||
 E4 z2 | [CE]6 | [Ee]2 [Ed]2 [Ec]2 | [EB]4 [EG]2 | [DG]2 [DF]4 | E6- | E2 z2 z2 |] %25
w: |||||||
V:2
 x6 | x6 | x6 | x6 | x6 | x6 | x6 | x6 | x6 | c2- [Fc]2 [EF]2 | x6 | F2 z2 z2 | x6 | x6 | x6 | x6 | %16
 x6 | x6 | B,2 C2 [_DE]2 | x6 | x6 | x6 | x6 | x6 | x6 |] %25
V:3
 G,2 B,2 A,2 | G,4 A,2 | G,4 A,2 | G,6 | G,2 G,2 G,2 | G,2 =B,2[K:treble] C2 | D4 C2 | =B,4 B,2 | %8
 C4[K:bass] B,2 | A,4 =A,2 | B,4 A,2 | G,6 | G,2 =A,2 B,2 | =A,4 C2 | B,4 =A,2 | B,4 B,2 | %16
 A,4 A,2 | G,4 E,2 | E,4 E,2 | E,6 | C2 F,2 _G,2 | G,4 B,2 | B,2 A,4 | G,6- | G,2 z2 z2 |] %25
V:4
 E,2 E,2 B,,2 | C,4 A,,2 | B,,4 B,,2 | E,6 | G,,2 =A,,2 =B,,2 | C,2 D,2 E,2 | F,4 F,2 | G,4 G,2 | %8
 C,2 D,2 =E,2 | F,4 F,2 | B,,2 C,2 D,2 | E,6 | D,2 C,2 B,,2 | C,4 C,2 | D,4 D,2 | G,4 G,2 | %16
 B,,4 B,,2 | C,4 z2 | G,,2 A,,2 B,,2 | A,,6 | A,,2 A,,2 =A,,2 | B,,4 B,,2 | B,,2 B,,4 | E,6- | %24
 E,2 z2 z2 |] %25

